X:33
T:March in Battle of Prague
M:C
N:page 21 on manuscript
L:1/8
K:F
f2 f>f f2 g/f/e/d/ | {d}c2 c>c c2 a>f | {e}d2 b>g {f}e2 g>e | f2 f>f f2 (ag) | g2 ef .g(gag) | f2 de .f (fge) |
{f}(ed/e/) (g/f/)(e/d/) c2 T=B2 | c2 c>c c2 z :||: c2 c>d e>fg>a | b2 g>b a2 ab | (c'a).f.f b>ga>f |
g2 c>c c2 A>B | c2 d>e f2 a>f | e2 b>g a2 (3(cfa) | c'aff agfe | f2 f>f f2 z :|

